src/components/Icon/svg-icon/main/view-table.svg

<svg xmlns="http://www.w3.org/2000/svg" width="24" height="24"><path fill="#677078" d="M10 18h5V5h-5v13zm-6 0h5V5H4v13zM16 5v13h5V5h-5z"/></svg>

<svg xmlns="http://www.w3.org/2000/svg" width="24" height="24" viewBox="0 0 24 24">
  <path fill="#677078" d="M10,18 L15,18 L15,5 L10,5 L10,18 Z M4,18 L9,18 L9,5 L4,5 L4,18 Z M16,5 L16,18 L21,18 L21,5 L16,5 Z"/>
</svg>
